public/img/logo.svg

<svg width="227" height="55" viewBox="0 0 227 55" fill="none" xmlns="http://www.w3.org/2000/svg">
<path d="M19.2123 42.6475L21.0041 46.1943H17.4204L19.2123 42.6475Z" fill="#FFE70B"/>
<circle cx="18.9167" cy="24.3214" r="18.9167" fill="#FFE70B"/>
<path d="M14.2809 5.98207C17.0046 5.29363 19.8474 5.22047 22.6029 5.76791C25.3583 6.31536 27.9573 7.46966 30.2109 9.14697C32.4645 10.8243 34.3163 12.9825 35.6316 15.4649C36.947 17.9472 37.693 20.6914 37.8153 23.498C37.9377 26.3047 37.4334 29.1033 36.339 31.6907C35.2447 34.2781 33.5878 36.5893 31.4887 38.4564C29.3896 40.3235 26.9009 41.6996 24.2036 42.4847C21.5062 43.2699 18.6678 43.4444 15.8946 42.9956L19.2122 42.3519C21.8723 41.4651 21.5767 41.7607 23.9413 40.5784C26.2153 39.4414 27.8474 37.9672 29.6374 36.3751C31.4274 34.7829 32.8404 32.8121 33.7736 30.6057C34.7068 28.3993 35.1368 26.0127 35.0325 23.6193C34.9281 21.226 34.292 18.8859 33.1703 16.7691C32.0487 14.6522 30.4696 12.8118 28.5478 11.3815C26.626 9.95117 26.3059 9.54329 23.4251 8.06543C20.9856 6.81399 16.6035 5.395 14.2809 5.98207Z" fill="#FFD80B" fill-opacity="0.9"/>
<path d="M17.0173 29.7351C17.2973 29.8151 17.6573 29.8751 18.0973 29.9151C18.5373 29.9351 18.9573 29.9451 19.3573 29.9451C20.1573 29.9451 20.8173 29.7851 21.3373 29.4651C21.8773 29.1251 22.1473 28.6051 22.1473 27.9051C22.1473 27.2451 21.9273 26.7751 21.4873 26.4951C21.0473 26.2151 20.3773 26.0751 19.4773 26.0751H17.0173V29.7351ZM17.0173 22.4151H19.2073C20.0673 22.4151 20.6873 22.2551 21.0673 21.9351C21.4673 21.6151 21.6673 21.1451 21.6673 20.5251C21.6673 19.9851 21.4373 19.5551 20.9773 19.2351C20.5373 18.9151 19.8673 18.7551 18.9673 18.7551C18.6673 18.7551 18.3173 18.7651 17.9173 18.7851C17.5373 18.8051 17.2373 18.8351 17.0173 18.8751V22.4151ZM18.9673 33.9651C18.6273 33.9651 18.2273 33.9551 17.7673 33.9351C17.3073 33.9151 16.8273 33.8751 16.3273 33.8151C15.8473 33.7551 15.3673 33.6751 14.8873 33.5751C14.4073 33.4951 13.9673 33.3751 13.5673 33.2151C12.4673 32.7951 11.9173 32.0651 11.9173 31.0251V17.0151C11.9173 16.5951 12.0273 16.2751 12.2473 16.0551C12.4873 15.8151 12.8073 15.6251 13.2073 15.4851C13.8873 15.2451 14.7373 15.0751 15.7573 14.9751C16.7773 14.8551 17.8273 14.7951 18.9073 14.7951C21.4673 14.7951 23.4373 15.2251 24.8173 16.0851C26.1973 16.9451 26.8873 18.2751 26.8873 20.0751C26.8873 20.9751 26.6273 21.7551 26.1073 22.4151C25.5873 23.0551 24.8873 23.5251 24.0073 23.8251C25.0073 24.1051 25.8373 24.6151 26.4973 25.3551C27.1773 26.0951 27.5173 27.0251 27.5173 28.1451C27.5173 30.1251 26.7773 31.5951 25.2973 32.5551C23.8373 33.4951 21.7273 33.9651 18.9673 33.9651Z" fill="black"/>
<path d="M57.0456 37.2427L58.8374 40.7895H55.2538L57.0456 37.2427Z" fill="#FFE70B"/>
<circle cx="56.75" cy="18.9167" r="18.9167" fill="#FFE70B"/>
<path d="M52.1143 0.577287C54.838 -0.111158 57.6808 -0.184316 60.4363 0.363129C63.1917 0.910573 65.7907 2.06487 68.0443 3.74219C70.2979 5.4195 72.1497 7.57772 73.465 10.0601C74.7804 12.5424 75.5264 15.2866 75.6487 18.0932C75.7711 20.8999 75.2668 23.6985 74.1724 26.286C73.0781 28.8734 71.4212 31.1845 69.3221 33.0516C67.223 34.9187 64.7343 36.2948 62.037 37.08C59.3396 37.8651 56.5012 38.0396 53.728 37.5908L57.0456 36.9471C59.7057 36.0604 59.4101 36.3559 61.7747 35.1736C64.0487 34.0366 65.6808 32.5625 67.4708 30.9703C69.2608 29.3782 70.6738 27.4073 71.607 25.2009C72.5402 22.9945 72.9702 20.6079 72.8659 18.2146C72.7615 15.8212 72.1254 13.4811 71.0037 11.3643C69.8821 9.24745 68.303 7.40704 66.3812 5.97671C64.4594 4.54638 64.1393 4.13851 61.2585 2.66064C58.819 1.4092 54.4369 -0.0097842 52.1143 0.577287Z" fill="#FFD80B" fill-opacity="0.9"/>
<path d="M59.3797 28.7162C59.1597 28.7762 58.8097 28.8362 58.3297 28.8962C57.8697 28.9562 57.4097 28.9862 56.9497 28.9862C56.4897 28.9862 56.0797 28.9462 55.7197 28.8662C55.3797 28.8062 55.0897 28.6862 54.8497 28.5062C54.6097 28.3262 54.4297 28.0762 54.3097 27.7562C54.1897 27.4362 54.1297 27.0162 54.1297 26.4962V10.6562C54.3497 10.6162 54.6997 10.5662 55.1797 10.5062C55.6597 10.4262 56.1197 10.3862 56.5597 10.3862C57.0197 10.3862 57.4197 10.4262 57.7597 10.5062C58.1197 10.5662 58.4197 10.6862 58.6597 10.8662C58.8997 11.0462 59.0797 11.2962 59.1997 11.6162C59.3197 11.9362 59.3797 12.3562 59.3797 12.8762V28.7162Z" fill="black"/>
<path d="M94.8789 48.7278L96.6707 52.2747H93.0871L94.8789 48.7278Z" fill="#FFE70B"/>
<circle cx="94.5833" cy="30.4018" r="18.9167" fill="#FFE70B"/>
<path d="M89.9477 12.0624C92.6713 11.3739 95.5141 11.3008 98.2696 11.8482C101.025 12.3957 103.624 13.55 105.878 15.2273C108.131 16.9046 109.983 19.0628 111.298 21.5452C112.614 24.0275 113.36 26.7717 113.482 29.5783C113.604 32.385 113.1 35.1837 112.006 37.7711C110.911 40.3585 109.254 42.6696 107.155 44.5367C105.056 46.4038 102.568 47.7799 99.8703 48.5651C97.1729 49.3502 94.3345 49.5247 91.5613 49.0759L94.8789 48.4322C97.539 47.5455 97.2435 47.841 99.608 46.6587C101.882 45.5217 103.514 44.0476 105.304 42.4554C107.094 40.8633 108.507 38.8924 109.44 36.686C110.373 34.4796 110.804 32.093 110.699 29.6997C110.595 27.3063 109.959 24.9662 108.837 22.8494C107.715 20.7326 106.136 18.8921 104.215 17.4618C102.293 16.0315 101.973 15.6236 99.0918 14.1457C96.6523 12.8943 92.2703 11.4753 89.9477 12.0624Z" fill="#FFD80B" fill-opacity="0.9"/>
<path d="M93.7694 33.0112C92.8894 32.7112 92.0894 32.4112 91.3694 32.1112C90.6494 31.7912 90.0294 31.4112 89.5094 30.9712C88.9894 30.5312 88.5794 30.0112 88.2794 29.4112C87.9994 28.7912 87.8594 28.0412 87.8594 27.1612C87.8594 25.4612 88.5094 24.1012 89.8094 23.0812C91.1294 22.0612 92.9694 21.5512 95.3294 21.5512C96.1894 21.5512 96.9894 21.6112 97.7294 21.7312C98.4694 21.8512 99.0994 22.0412 99.6194 22.3012C100.159 22.5412 100.579 22.8612 100.879 23.2612C101.179 23.6412 101.329 24.0912 101.329 24.6112C101.329 25.1312 101.209 25.5812 100.969 25.9612C100.729 26.3212 100.439 26.6312 100.099 26.8912C99.6594 26.6112 99.0694 26.3712 98.3294 26.1712C97.5894 25.9512 96.7794 25.8412 95.8994 25.8412C94.9994 25.8412 94.3394 25.9712 93.9194 26.2312C93.4994 26.4712 93.2894 26.7812 93.2894 27.1612C93.2894 27.4612 93.4194 27.7112 93.6794 27.9112C93.9394 28.0912 94.3294 28.2612 94.8494 28.4212L96.4394 28.9312C98.3194 29.5312 99.7594 30.3012 100.759 31.2412C101.779 32.1612 102.289 33.4212 102.289 35.0212C102.289 36.7212 101.619 38.1012 100.279 39.1612C98.9394 40.2012 96.9694 40.7212 94.3694 40.7212C93.4494 40.7212 92.5894 40.6412 91.7894 40.4812C91.0094 40.3412 90.3194 40.1312 89.7194 39.8512C89.1394 39.5512 88.6794 39.1912 88.3394 38.7712C88.0194 38.3312 87.8594 37.8312 87.8594 37.2712C87.8594 36.6912 88.0294 36.2012 88.3694 35.8012C88.7094 35.3812 89.0794 35.0612 89.4794 34.8412C90.0394 35.2812 90.7194 35.6612 91.5194 35.9812C92.3394 36.3012 93.2294 36.4612 94.1894 36.4612C95.1694 36.4612 95.8594 36.3112 96.2594 36.0112C96.6594 35.7112 96.8594 35.3612 96.8594 34.9612C96.8594 34.5612 96.6994 34.2612 96.3794 34.0612C96.0594 33.8412 95.6094 33.6312 95.0294 33.4312L93.7694 33.0112Z" fill="black"/>
<path d="M132.712 37.9182L134.504 41.4651H130.92L132.712 37.9182Z" fill="#FFE70B"/>
<circle cx="132.417" cy="19.5922" r="18.9167" fill="#FFE70B"/>
<path d="M127.781 1.25282C130.505 0.564379 133.347 0.491221 136.103 1.03867C138.858 1.58611 141.457 2.74041 143.711 4.41773C145.965 6.09504 147.816 8.25325 149.132 10.7356C150.447 13.218 151.193 15.9621 151.315 18.7688C151.438 21.5754 150.933 24.3741 149.839 26.9615C148.745 29.5489 147.088 31.8601 144.989 33.7271C142.89 35.5942 140.401 36.9703 137.704 37.7555C135.006 38.5407 132.168 38.7152 129.395 38.2664L132.712 37.6226C135.372 36.7359 135.077 37.0315 137.441 35.8492C139.715 34.7122 141.347 33.238 143.137 31.6458C144.927 30.0537 146.34 28.0828 147.274 25.8764C148.207 23.67 148.637 21.2835 148.533 18.8901C148.428 16.4967 147.792 14.1566 146.67 12.0398C145.549 9.92299 143.97 8.08258 142.048 6.65225C140.126 5.22192 139.806 4.81404 136.925 3.33618C134.486 2.08474 130.104 0.665753 127.781 1.25282Z" fill="#FFD80B" fill-opacity="0.9"/>
<path d="M140.612 29.3114C140.392 29.3714 140.042 29.4314 139.562 29.4914C139.102 29.5514 138.642 29.5814 138.182 29.5814C137.722 29.5814 137.312 29.5414 136.952 29.4614C136.612 29.4014 136.322 29.2814 136.082 29.1014C135.842 28.9214 135.662 28.6714 135.542 28.3514C135.422 28.0314 135.362 27.6114 135.362 27.0914V22.4114H129.602V29.3114C129.382 29.3714 129.032 29.4314 128.552 29.4914C128.092 29.5514 127.632 29.5814 127.172 29.5814C126.712 29.5814 126.302 29.5414 125.942 29.4614C125.602 29.4014 125.312 29.2814 125.072 29.1014C124.832 28.9214 124.652 28.6714 124.532 28.3514C124.412 28.0314 124.352 27.6114 124.352 27.0914V11.2514C124.572 11.2114 124.922 11.1614 125.402 11.1014C125.882 11.0214 126.342 10.9814 126.782 10.9814C127.242 10.9814 127.642 11.0214 127.982 11.1014C128.342 11.1614 128.642 11.2814 128.882 11.4614C129.122 11.6414 129.302 11.8914 129.422 12.2114C129.542 12.5314 129.602 12.9514 129.602 13.4714V18.2714H135.362V11.2514C135.582 11.2114 135.932 11.1614 136.412 11.1014C136.892 11.0214 137.352 10.9814 137.792 10.9814C138.252 10.9814 138.652 11.0214 138.992 11.1014C139.352 11.1614 139.652 11.2814 139.892 11.4614C140.132 11.6414 140.312 11.8914 140.432 12.2114C140.552 12.5314 140.612 12.9514 140.612 13.4714V29.3114Z" fill="black"/>
<path d="M170.546 49.4033L172.337 52.9502H168.754L170.546 49.4033Z" fill="#FFE70B"/>
<circle cx="170.25" cy="31.0773" r="18.9167" fill="#FFE70B"/>
<path d="M165.614 12.7382C168.338 12.0497 171.181 11.9766 173.936 12.524C176.692 13.0715 179.291 14.2258 181.544 15.9031C183.798 17.5804 185.65 19.7386 186.965 22.221C188.28 24.7033 189.026 27.4475 189.149 30.2541C189.271 33.0608 188.767 35.8594 187.672 38.4468C186.578 41.0343 184.921 43.3454 182.822 45.2125C180.723 47.0796 178.234 48.4557 175.537 49.2408C172.84 50.026 170.001 50.2005 167.228 49.7517L170.546 49.108C173.206 48.2212 172.91 48.5168 175.275 47.3345C177.549 46.1975 179.181 44.7233 180.971 43.1312C182.761 41.539 184.174 39.5682 185.107 37.3618C186.04 35.1554 186.47 32.7688 186.366 30.3754C186.262 27.9821 185.625 25.642 184.504 23.5252C183.382 21.4083 181.803 19.5679 179.881 18.1376C177.959 16.7073 177.639 16.2994 174.758 14.8215C172.319 13.5701 167.937 12.1511 165.614 12.7382Z" fill="#FFD80B" fill-opacity="0.9"/>
<path d="M168.302 34.1665V40.7965C168.082 40.8565 167.732 40.9165 167.252 40.9765C166.772 41.0365 166.302 41.0665 165.842 41.0665C165.382 41.0665 164.972 41.0265 164.612 40.9465C164.272 40.8865 163.982 40.7665 163.742 40.5865C163.502 40.4065 163.322 40.1565 163.202 39.8365C163.082 39.5165 163.022 39.0965 163.022 38.5765V22.7365C163.242 22.6965 163.592 22.6465 164.072 22.5865C164.552 22.5065 165.012 22.4665 165.452 22.4665C165.912 22.4665 166.312 22.5065 166.652 22.5865C167.012 22.6465 167.312 22.7665 167.552 22.9465C167.792 23.1265 167.972 23.3765 168.092 23.6965C168.212 24.0165 168.272 24.4365 168.272 24.9565V29.7265L174.512 22.5565C175.872 22.5565 176.842 22.8165 177.422 23.3365C178.022 23.8365 178.322 24.4365 178.322 25.1365C178.322 25.6565 178.192 26.1465 177.932 26.6065C177.672 27.0665 177.252 27.5865 176.672 28.1665L172.922 31.9165C173.422 32.4765 173.942 33.0565 174.482 33.6565C175.042 34.2565 175.582 34.8465 176.102 35.4265C176.642 35.9865 177.152 36.5265 177.632 37.0465C178.132 37.5665 178.562 38.0165 178.922 38.3965C178.922 38.8365 178.842 39.2265 178.682 39.5665C178.522 39.9065 178.302 40.1965 178.022 40.4365C177.762 40.6765 177.462 40.8565 177.122 40.9765C176.782 41.0965 176.422 41.1565 176.042 41.1565C175.222 41.1565 174.552 40.9565 174.032 40.5565C173.512 40.1365 173.012 39.6465 172.532 39.0865L168.302 34.1665Z" fill="black"/>
<path d="M208.379 41.2964L210.171 44.8433H206.587L208.379 41.2964Z" fill="#FFE70B"/>
<circle cx="208.083" cy="22.9704" r="18.9167" fill="#FFE70B"/>
<path d="M203.448 4.631C206.171 3.94255 209.014 3.8694 211.77 4.41684C214.525 4.96428 217.124 6.11858 219.378 7.7959C221.631 9.47321 223.483 11.6314 224.798 14.1138C226.114 16.5961 226.86 19.3403 226.982 22.1469C227.104 24.9536 226.6 27.7523 225.506 30.3397C224.411 32.9271 222.754 35.2382 220.655 37.1053C218.556 38.9724 216.068 40.3485 213.37 41.1337C210.673 41.9188 207.835 42.0933 205.061 41.6445L208.379 41.0008C211.039 40.1141 210.743 40.4096 213.108 39.2273C215.382 38.0903 217.014 36.6162 218.804 35.024C220.594 33.4319 222.007 31.461 222.94 29.2546C223.873 27.0482 224.304 24.6616 224.199 22.2683C224.095 19.8749 223.459 17.5348 222.337 15.418C221.215 13.3012 219.636 11.4607 217.714 10.0304C215.793 8.60009 215.473 8.19222 212.592 6.71435C210.152 5.46291 205.77 4.04393 203.448 4.631Z" fill="#FFD80B" fill-opacity="0.9"/>
<path d="M204.692 14.494C205.032 14.294 205.542 14.104 206.222 13.924C206.922 13.744 207.622 13.654 208.322 13.654C209.322 13.654 210.202 13.804 210.962 14.104C211.742 14.384 212.242 14.834 212.462 15.454C212.822 16.494 213.212 17.704 213.632 19.084C214.052 20.464 214.472 21.894 214.892 23.374C215.312 24.834 215.722 26.284 216.122 27.724C216.522 29.144 216.872 30.404 217.172 31.504C216.932 31.784 216.572 32.004 216.092 32.164C215.612 32.344 215.042 32.434 214.382 32.434C213.902 32.434 213.492 32.394 213.152 32.314C212.832 32.234 212.562 32.114 212.342 31.954C212.142 31.794 211.972 31.584 211.832 31.324C211.712 31.064 211.602 30.764 211.502 30.424L210.962 28.354H205.532C205.372 28.954 205.212 29.574 205.052 30.214C204.892 30.854 204.732 31.474 204.572 32.074C204.292 32.174 203.992 32.254 203.672 32.314C203.372 32.394 203.002 32.434 202.562 32.434C201.542 32.434 200.782 32.264 200.282 31.924C199.802 31.564 199.562 31.074 199.562 30.454C199.562 30.174 199.602 29.894 199.682 29.614C199.762 29.334 199.852 29.004 199.952 28.624C200.092 28.084 200.282 27.414 200.522 26.614C200.782 25.814 201.062 24.954 201.362 24.034C201.662 23.094 201.982 22.134 202.322 21.154C202.662 20.174 202.982 19.254 203.282 18.394C203.582 17.514 203.852 16.734 204.092 16.054C204.352 15.374 204.552 14.854 204.692 14.494ZM208.292 18.364C208.012 19.204 207.692 20.144 207.332 21.184C206.992 22.204 206.682 23.244 206.402 24.304H210.122C209.842 23.224 209.552 22.174 209.252 21.154C208.972 20.114 208.712 19.184 208.472 18.364H208.292Z" fill="black"/>
</svg>

<svg width="227" height="55" fill="none" xmlns="http://www.w3.org/2000/svg"><path d="M19.212 42.648l1.792 3.546H17.42l1.792-3.547z" fill="#FFE70B"/><circle cx="18.917" cy="24.321" r="18.917" fill="#FFE70B"/><path d="M14.28 5.982a18.917 18.917 0 111.615 37.014l3.317-.644c2.66-.887 2.365-.591 4.73-1.774 2.273-1.137 3.905-2.61 5.695-4.203a16.132 16.132 0 00-1.09-24.993c-1.921-1.43-2.241-1.839-5.122-3.317-2.44-1.251-6.822-2.67-9.144-2.083z" fill="#FFD80B" fill-opacity=".9"/><path d="M17.017 29.735c.28.08.64.14 1.08.18.44.02.86.03 1.26.03.8 0 1.46-.16 1.98-.48.54-.34.81-.86.81-1.56 0-.66-.22-1.13-.66-1.41-.44-.28-1.11-.42-2.01-.42h-2.46v3.66zm0-7.32h2.19c.86 0 1.48-.16 1.86-.48.4-.32.6-.79.6-1.41 0-.54-.23-.97-.69-1.29-.44-.32-1.11-.48-2.01-.48-.3 0-.65.01-1.05.03-.38.02-.68.05-.9.09v3.54zm1.95 11.55c-.34 0-.74-.01-1.2-.03a18.012 18.012 0 01-2.88-.36c-.48-.08-.92-.2-1.32-.36-1.1-.42-1.65-1.15-1.65-2.19v-14.01c0-.42.11-.74.33-.96.24-.24.56-.43.96-.57.68-.24 1.53-.41 2.55-.51 1.02-.12 2.07-.18 3.15-.18 2.56 0 4.53.43 5.91 1.29 1.38.86 2.07 2.19 2.07 3.99 0 .9-.26 1.68-.78 2.34-.52.64-1.22 1.11-2.1 1.41 1 .28 1.83.79 2.49 1.53.68.74 1.02 1.67 1.02 2.79 0 1.98-.74 3.45-2.22 4.41-1.46.94-3.57 1.41-6.33 1.41z" fill="#000"/><path d="M57.046 37.243l1.791 3.546h-3.583l1.792-3.546z" fill="#FFE70B"/><circle cx="56.75" cy="18.917" r="18.917" fill="#FFE70B"/><path d="M52.114.577a18.917 18.917 0 111.614 37.014l3.318-.644c2.66-.887 2.364-.591 4.729-1.773 2.274-1.137 3.906-2.611 5.696-4.204a16.131 16.131 0 00-1.09-24.993c-1.922-1.43-2.242-1.838-5.123-3.316C58.82 1.409 54.438-.01 52.114.577z" fill="#FFD80B" fill-opacity=".9"/><path d="M59.38 28.716c-.22.06-.57.12-1.05.18-.46.06-.92.09-1.38.09-.46 0-.87-.04-1.23-.12-.34-.06-.63-.18-.87-.36a1.62 1.62 0 01-.54-.75c-.12-.32-.18-.74-.18-1.26v-15.84c.22-.04.57-.09 1.05-.15.48-.08.94-.12 1.38-.12.46 0 .86.04 1.2.12.36.06.66.18.9.36s.42.43.54.75c.12.32.18.74.18 1.26v15.84z" fill="#000"/><path d="M94.879 48.728l1.792 3.547h-3.584l1.792-3.547z" fill="#FFE70B"/><circle cx="94.583" cy="30.402" r="18.917" fill="#FFE70B"/><path d="M89.948 12.062a18.916 18.916 0 111.613 37.014l3.318-.644c2.66-.887 2.364-.591 4.729-1.773 2.274-1.137 3.906-2.611 5.696-4.204a16.128 16.128 0 003.533-19.606 16.142 16.142 0 00-4.622-5.387c-1.922-1.43-2.242-1.838-5.123-3.316-2.44-1.252-6.822-2.67-9.144-2.084z" fill="#FFD80B" fill-opacity=".9"/><path d="M93.77 33.011c-.88-.3-1.68-.6-2.4-.9-.72-.32-1.34-.7-1.86-1.14a4.89 4.89 0 01-1.23-1.56c-.28-.62-.42-1.37-.42-2.25 0-1.7.65-3.06 1.95-4.08 1.32-1.02 3.16-1.53 5.52-1.53.86 0 1.66.06 2.4.18s1.37.31 1.89.57c.539.24.959.56 1.259.96.3.38.45.83.45 1.35 0 .52-.12.97-.36 1.35-.24.36-.53.67-.87.93-.44-.28-1.03-.52-1.77-.72a8.5 8.5 0 00-2.43-.33c-.9 0-1.56.13-1.98.39-.42.24-.63.55-.63.93 0 .3.13.55.39.75.26.18.65.35 1.17.51l1.59.51c1.88.6 3.32 1.37 4.32 2.31 1.02.92 1.53 2.18 1.53 3.78 0 1.7-.67 3.08-2.01 4.14-1.34 1.04-3.31 1.56-5.91 1.56-.92 0-1.78-.08-2.58-.24-.78-.14-1.47-.35-2.07-.63-.58-.3-1.04-.66-1.38-1.08-.32-.44-.48-.94-.48-1.5 0-.58.17-1.07.51-1.47.34-.42.71-.74 1.11-.96.56.44 1.24.82 2.04 1.14.82.32 1.71.48 2.67.48.98 0 1.67-.15 2.07-.45.4-.3.6-.65.6-1.05s-.16-.7-.48-.9c-.32-.22-.77-.43-1.35-.63l-1.26-.42z" fill="#000"/><path d="M132.712 37.918l1.792 3.547h-3.584l1.792-3.547z" fill="#FFE70B"/><circle cx="132.417" cy="19.592" r="18.917" fill="#FFE70B"/><path d="M127.781 1.253a18.917 18.917 0 111.614 37.013l3.317-.643c2.66-.887 2.365-.591 4.729-1.774 2.274-1.137 3.906-2.611 5.696-4.203a16.139 16.139 0 003.533-19.606 16.12 16.12 0 00-4.622-5.388c-1.922-1.43-2.242-1.838-5.123-3.316-2.439-1.251-6.821-2.67-9.144-2.083z" fill="#FFD80B" fill-opacity=".9"/><path d="M140.612 29.311c-.22.06-.57.12-1.05.18-.46.06-.92.09-1.38.09-.46 0-.87-.04-1.23-.12-.34-.06-.63-.18-.87-.36a1.62 1.62 0 01-.54-.75c-.12-.32-.18-.74-.18-1.26v-4.68h-5.76v6.9c-.22.06-.57.12-1.05.18-.46.06-.92.09-1.38.09-.46 0-.87-.04-1.23-.12-.34-.06-.63-.18-.87-.36a1.62 1.62 0 01-.54-.75c-.12-.32-.18-.74-.18-1.26v-15.84c.22-.04.57-.09 1.05-.15.48-.08.94-.12 1.38-.12.46 0 .86.04 1.2.12.36.06.66.18.9.36s.42.43.54.75c.12.32.18.74.18 1.26v4.8h5.76v-7.02c.22-.04.57-.09 1.05-.15.48-.08.94-.12 1.38-.12.46 0 .86.04 1.2.12.36.06.66.18.9.36s.42.43.54.75c.12.32.18.74.18 1.26v15.84z" fill="#000"/><path d="M170.546 49.403l1.791 3.547h-3.583l1.792-3.547z" fill="#FFE70B"/><circle cx="170.25" cy="31.077" r="18.917" fill="#FFE70B"/><path d="M165.614 12.738a18.917 18.917 0 111.614 37.014l3.318-.644c2.66-.887 2.364-.591 4.729-1.773 2.274-1.138 3.906-2.612 5.696-4.204a16.129 16.129 0 00-1.09-24.993c-1.922-1.43-2.242-1.839-5.123-3.317-2.439-1.25-6.821-2.67-9.144-2.083z" fill="#FFD80B" fill-opacity=".9"/><path d="M168.302 34.166v6.63c-.22.06-.57.12-1.05.18-.48.06-.95.09-1.41.09-.46 0-.87-.04-1.23-.12-.34-.06-.63-.18-.87-.36a1.62 1.62 0 01-.54-.75c-.12-.32-.18-.74-.18-1.26v-15.84c.22-.04.57-.09 1.05-.15.48-.08.94-.12 1.38-.12.46 0 .86.04 1.2.12.36.06.66.18.9.36s.42.43.54.75c.12.32.18.74.18 1.26v4.77l6.24-7.17c1.36 0 2.33.26 2.91.78.6.5.9 1.1.9 1.8 0 .52-.13 1.01-.39 1.47-.26.46-.68.98-1.26 1.56l-3.75 3.75c.5.56 1.02 1.14 1.56 1.74.56.6 1.1 1.19 1.62 1.77.54.56 1.05 1.1 1.53 1.62.5.52.93.97 1.29 1.35 0 .44-.08.83-.24 1.17-.16.34-.38.63-.66.87-.26.24-.56.42-.9.54-.34.12-.7.18-1.08.18-.82 0-1.49-.2-2.01-.6-.52-.42-1.02-.91-1.5-1.47l-4.23-4.92z" fill="#000"/><path d="M208.379 41.296l1.792 3.547h-3.584l1.792-3.547z" fill="#FFE70B"/><circle cx="208.083" cy="22.97" r="18.917" fill="#FFE70B"/><path d="M203.448 4.631a18.917 18.917 0 111.613 37.014l3.318-.644c2.66-.887 2.364-.591 4.729-1.774 2.274-1.137 3.906-2.61 5.696-4.203a16.128 16.128 0 003.533-19.606 16.134 16.134 0 00-4.623-5.388c-1.921-1.43-2.241-1.838-5.122-3.316-2.44-1.251-6.822-2.67-9.144-2.083z" fill="#FFD80B" fill-opacity=".9"/><path d="M204.692 14.494c.34-.2.85-.39 1.53-.57.7-.18 1.4-.27 2.1-.27 1 0 1.88.15 2.64.45.78.28 1.28.73 1.5 1.35.36 1.04.75 2.25 1.17 3.63.42 1.38.84 2.81 1.26 4.29.42 1.46.83 2.91 1.23 4.35.4 1.42.75 2.68 1.05 3.78-.24.28-.6.5-1.08.66-.48.18-1.05.27-1.71.27-.48 0-.89-.04-1.23-.12-.32-.08-.59-.2-.81-.36-.2-.16-.37-.37-.51-.63-.12-.26-.23-.56-.33-.9l-.54-2.07h-5.43c-.16.6-.32 1.22-.48 1.86-.16.64-.32 1.26-.48 1.86-.28.1-.58.18-.9.24-.3.08-.67.12-1.11.12-1.02 0-1.78-.17-2.28-.51-.48-.36-.72-.85-.72-1.47 0-.28.04-.56.12-.84.08-.28.17-.61.27-.99.14-.54.33-1.21.57-2.01l.84-2.58c.3-.94.62-1.9.96-2.88l.96-2.76c.3-.88.57-1.66.81-2.34.26-.68.46-1.2.6-1.56zm3.6 3.87c-.28.84-.6 1.78-.96 2.82a51.27 51.27 0 00-.93 3.12h3.72c-.28-1.08-.57-2.13-.87-3.15-.28-1.04-.54-1.97-.78-2.79h-.18z" fill="#000"/></svg>
